X: 949
T: the Humors of Trim   #2
R: jig
%S: s:3 b:14(6+4+4)
B: O'Neill's 1850 #949
O: F.O'Neill
Z: Tom Keays (htkeays@mailbox.syr.edu)
%abc 1.6
M: 6/8
L: 1/8
K: D
"^A"|: FEF DED | D2d cAG |1,3 FEF DED | A2F GFE :|2,4 FAF GBG | A2F GFE :|
"^B"|: D2d cAd | cAd cAG | F2d cAd | A2F GFE |
|      D2d cAd | fed cAG | FAF GBG | A2F GFE :|
